dist/svg/static/dealer-search-large.svg

<svg xmlns="http://www.w3.org/2000/svg" width="48" height="48" viewBox="0 0 48 48"><g fill="none" stroke="currentColor" stroke-miterlimit="10"><path d="M23.5 27.12v17.394h-13a3 3 0 0 1-3-3V7.5h6.427m9.573 26h-16M20 7.5h3.5v14.415M31.514 22.155l9.293 12.826"/><circle cx="24.924" cy="13.985" r="10.499"/></g></svg>

<?xml version="1.0" encoding="UTF-8" standalone="no"?>
<svg width="48px" height="48px" viewBox="0 0 48 48" version="1.1" xmlns="http://www.w3.org/2000/svg" xmlns:xlink="http://www.w3.org/1999/xlink">
    <!-- Generator: sketchtool 46.2 (44496) - http://www.bohemiancoding.com/sketch -->
    <title>dealer-search-large</title>
    <desc>Created with sketchtool.</desc>
    <defs></defs>
    <g id="icons-published" stroke="none" stroke-width="1" fill="none" fill-rule="evenodd">
        <g id="briefing" transform="translate(-2016.000000, -410.000000)"></g>
        <g id="dealer-search-large" stroke="#000000">
            <path d="M23.5,27.1 L23.5,44.5 L10.5,44.5 C8.8,44.5 7.5,43.2 7.5,41.5 L7.5,7.5 L13.9,7.5 M23.5,33.5 L7.5,33.5 M20,7.5 L23.5,7.5 L23.5,21.9 M31.5,22.2 L40.8,35" id="Shape"></path>
            <circle id="Oval" cx="24.9" cy="14" r="10.5"></circle>
        </g>
    </g>
</svg>
